Newaita-dark/actions/16/view-more-horizontal.svg

<svg height="16" viewBox="0 0 16 16" width="16" xmlns="http://www.w3.org/2000/svg"><g fill="#e0e0e0"><path d="m12.898438 6.410156c-.914063 0-1.652344.738282-1.652344 1.652344 0 .917969.738281 1.65625 1.652344 1.65625.917968 0 1.65625-.738281 1.65625-1.65625 0-.914062-.738282-1.652344-1.65625-1.652344zm0 0"/><path d="m7.9375 6.410156c-.914062 0-1.652344.738282-1.652344 1.652344 0 .917969.738282 1.65625 1.652344 1.65625.917969 0 1.65625-.738281 1.65625-1.65625 0-.914062-.738281-1.652344-1.65625-1.652344zm0 0"/><path d="m2.976562 6.410156c-.914062 0-1.652343.738282-1.652343 1.652344 0 .917969.738281 1.65625 1.652343 1.65625.917969 0 1.652344-.738281 1.652344-1.65625 0-.914062-.734375-1.652344-1.652344-1.652344zm0 0"/></g></svg>

<?xml version="1.0" encoding="UTF-8"?>
<svg xmlns="http://www.w3.org/2000/svg" xmlns:xlink="http://www.w3.org/1999/xlink" width="16px" height="16px" viewBox="0 0 16 16" version="1.1">
<g id="surface1">
<path style=" stroke:none;fill-rule:nonzero;fill:rgb(87.843138%,87.843138%,87.843138%);fill-opacity:1;" d="M 12.898438 6.410156 C 11.984375 6.410156 11.246094 7.148438 11.246094 8.0625 C 11.246094 8.980469 11.984375 9.71875 12.898438 9.71875 C 13.816406 9.71875 14.554688 8.980469 14.554688 8.0625 C 14.554688 7.148438 13.816406 6.410156 12.898438 6.410156 Z M 12.898438 6.410156 "/>
<path style=" stroke:none;fill-rule:nonzero;fill:rgb(87.843138%,87.843138%,87.843138%);fill-opacity:1;" d="M 7.9375 6.410156 C 7.023438 6.410156 6.285156 7.148438 6.285156 8.0625 C 6.285156 8.980469 7.023438 9.71875 7.9375 9.71875 C 8.855469 9.71875 9.59375 8.980469 9.59375 8.0625 C 9.59375 7.148438 8.855469 6.410156 7.9375 6.410156 Z M 7.9375 6.410156 "/>
<path style=" stroke:none;fill-rule:nonzero;fill:rgb(87.843138%,87.843138%,87.843138%);fill-opacity:1;" d="M 2.976562 6.410156 C 2.0625 6.410156 1.324219 7.148438 1.324219 8.0625 C 1.324219 8.980469 2.0625 9.71875 2.976562 9.71875 C 3.894531 9.71875 4.628906 8.980469 4.628906 8.0625 C 4.628906 7.148438 3.894531 6.410156 2.976562 6.410156 Z M 2.976562 6.410156 "/>
</g>
</svg>
